img/pinterest.svg

<svg width="21" height="22" viewBox="0 0 21 22" fill="none" xmlns="http://www.w3.org/2000/svg">
<path d="M10.5 0.292969C4.70094 0.292969 0 4.99391 0 10.793C0 16.592 4.70094 21.293 10.5 21.293C16.2991 21.293 21 16.592 21 10.793C21 4.99391 16.2991 0.292969 10.5 0.292969ZM11.2186 13.2812C10.5448 13.2298 10.2627 12.8962 9.73547 12.5769C9.44563 14.0983 9.09125 15.5573 8.04125 16.3197C7.71641 14.0184 8.51594 12.2925 8.88781 10.4583C8.25453 9.39188 8.96328 7.24703 10.2998 7.77422C11.9438 8.42609 8.87578 11.7391 10.9353 12.1536C13.0856 12.5845 13.9639 8.42172 12.6306 7.06984C10.7034 5.11531 7.02297 7.025 7.47578 9.82281C7.58516 10.5064 8.29281 10.7142 7.75797 11.6581C6.52531 11.3847 6.15672 10.4123 6.20484 9.11625C6.28031 6.99438 8.11125 5.50797 9.94656 5.30344C12.2686 5.04531 14.4473 6.15547 14.7492 8.34078C15.0872 10.8061 13.7003 13.4738 11.2186 13.2812Z" fill="#E6E6E6"/>
</svg>

<svg width="21" height="22" fill="none" xmlns="http://www.w3.org/2000/svg"><path d="M10.5.293C4.7.293 0 4.993 0 10.793c0 5.799 4.7 10.5 10.5 10.5S21 16.592 21 10.793c0-5.8-4.7-10.5-10.5-10.5Zm.719 12.988c-.674-.051-.956-.385-1.484-.704-.29 1.521-.644 2.98-1.694 3.743-.325-2.302.475-4.027.847-5.862-.633-1.066.075-3.211 1.412-2.684 1.644.652-1.424 3.965.635 4.38 2.15.43 3.029-3.732 1.696-5.084-1.928-1.955-5.608-.045-5.155 2.753.11.683.817.891.282 1.835-1.233-.273-1.601-1.246-1.553-2.542.075-2.122 1.906-3.608 3.742-3.813 2.322-.258 4.5.852 4.802 3.038.338 2.465-1.049 5.133-3.53 4.94Z" fill="#E6E6E6"/></svg>
